X: 38017
T: Spellan The Fiddler
R: hornpipe
M: 4/4
K: Gmajor
(3DEF|:{B}GDBG dBgd|bg (3ded cBAG|Fd (3d^cd Ad^ce|(3d^cd ed =cAFA|
GDBG dBgd|bg (3ded cBAG|fecA edBG|1 (3FGA (3DEF {B}G2 (3DEF:|2 (3FGA (3DEF {B}G2 ga||
bgdB GBdg|afcA FAcg|ag ba c'bag|fed^c =cA (3FGA|
GDBG dBgd|bg (3ded cBAG|fecA edBG|1 (3FGA (3DEF {B}G2 ga:|2 (3FGA (3DEF {B}G2 (3DEF||

